X:112
T:Irish Rover
O:Newfoundland
M:4/4
L:1/8
K:D
|FE | "D"D2 FG A2 de| f2 ec "G"d2 cB| "D"A2 BA F2 GF| "A7"E6 FE|
"D"D2 FG A2 de| f2 ec "G"d2 cB|"D"A2 BG F2 GE| D2 D2 D2 A2|
d3 e f2 d2|"A7"e3 c A3 A| d3 e f2 d2| "A7"e3 c AG FE|
"D"D2 FG A2 de|f2 ec "G"d2 cB|"D"A2 Bc d2 f2| "A7"e4 "D"d2|]
